application/svg/icon.svg

<svg width="129" height="24" viewBox="0 0 129 24" fill="none" xmlns="http://www.w3.org/2000/svg"><path d="M22.783 1.52298H3.07092V21.2351H22.783V1.52298Z" fill="white"></path><path d="M19.4498 0H4.55018C3.3434 0 2.18604 0.479394 1.33272 1.33272C0.479394 2.18604 0 3.3434 0 4.55018V19.4498C0 20.6566 0.479394 21.8139 1.33272 22.6673C2.18604 23.5206 3.3434 24 4.55018 24H19.4498C20.6566 24 21.814 23.5206 22.6673 22.6673C23.5206 21.8139 24 20.6566 24 19.4498V4.55018C24 3.3434 23.5206 2.18604 22.6673 1.33272C21.814 0.479394 20.6566 0 19.4498 0ZM14.7801 6.90379C14.7801 7.19625 14.6972 7.48273 14.541 7.72996H11.909C11.7805 7.52589 11.7012 7.29474 11.6775 7.05477C11.6537 6.8148 11.686 6.57258 11.772 6.34726C11.8579 6.12195 11.9951 5.9197 12.1726 5.75651C12.3501 5.59332 12.5632 5.47365 12.7949 5.40697C13.0267 5.34028 13.2708 5.3284 13.5079 5.37227C13.745 5.41614 13.9687 5.51456 14.1612 5.65974C14.3538 5.80492 14.5099 5.9929 14.6173 6.20881C14.7247 6.42472 14.7804 6.66264 14.7801 6.90379ZM11.1221 3.63747C11.5282 3.63767 11.9222 3.77534 12.2401 4.02807C12.5579 4.2808 12.7809 4.6337 12.8726 5.02929C12.4322 5.06873 12.0226 5.27154 11.7242 5.5978C11.4259 5.92406 11.2604 6.35016 11.2604 6.79227C11.2605 6.93791 11.2788 7.08297 11.3148 7.22409C11.0712 7.25186 10.8244 7.22952 10.5897 7.15843C10.355 7.08735 10.1374 6.96903 9.95006 6.81074C9.76278 6.65245 9.60983 6.45753 9.50063 6.23797C9.39143 6.0184 9.32828 5.77883 9.31506 5.53397C9.30184 5.28911 9.33883 5.04413 9.42375 4.81409C9.50868 4.58405 9.63974 4.37379 9.8089 4.19626C9.97805 4.01872 10.1817 3.87765 10.4074 3.78171C10.6331 3.68577 10.876 3.63699 11.1212 3.63837L11.1221 3.63747ZM9.03524 8.12253H15.0674C15.2421 8.12253 15.4097 8.19195 15.5333 8.31551C15.6568 8.43908 15.7262 8.60667 15.7262 8.78141C15.7262 8.95616 15.6568 9.12375 15.5333 9.24732C15.4097 9.37088 15.2421 9.4403 15.0674 9.4403H9.03524C8.86049 9.4403 8.6929 9.37088 8.56934 9.24732C8.44577 9.12375 8.37636 8.95616 8.37636 8.78141C8.37636 8.60667 8.44577 8.43908 8.56934 8.31551C8.6929 8.19195 8.86049 8.12253 9.03524 8.12253ZM16.651 17.9616C16.651 18.406 16.4745 18.8322 16.1602 19.1464C15.846 19.4606 15.4198 19.6372 14.9755 19.6372H9.17621C8.73183 19.6372 8.30565 19.4606 7.99142 19.1464C7.6772 18.8322 7.50067 18.406 7.50067 17.9616V12.4202C7.50144 12.0577 7.61978 11.7052 7.83792 11.4156C8.05606 11.126 8.36223 10.915 8.71048 10.8143V10.2299H15.2975V10.7795C15.6782 10.854 16.0212 11.0583 16.268 11.3576C16.5148 11.6568 16.6502 12.0323 16.651 12.4202V17.9616Z" fill="#BE1E2D"></path><path d="M12.0598 13.5694C10.4725 11.9822 8.41336 14.0422 10.0006 15.6286L12.0598 17.6842L14.1118 15.6321C15.6838 14.0601 13.6247 12.0009 12.0598 13.5694Z" fill="#BE1E2D"></path><path d="M37.9926 6.81777V18.721C38.0125 19.2967 37.8233 19.8601 37.4599 20.3071C37.1048 20.7304 36.612 20.9421 35.9814 20.9421C35.7034 20.9536 35.4265 20.9018 35.1715 20.7907C34.9165 20.6796 34.6901 20.512 34.5094 20.3006C34.1422 19.8595 33.9482 19.2999 33.9636 18.7262V6.81777H31.589C31.0745 6.83401 30.5712 6.66502 30.1708 6.34154C29.9813 6.18407 29.8308 5.98487 29.7311 5.75954C29.6314 5.53422 29.5852 5.28888 29.5961 5.04273C29.5847 4.79332 29.6303 4.54459 29.7294 4.31544C29.8285 4.0863 29.9786 3.88275 30.1682 3.72029C30.5666 3.39048 31.072 3.21782 31.589 3.23487H40.2989C40.8151 3.21623 41.3202 3.38649 41.7198 3.71373C42.0967 4.03297 42.2852 4.47553 42.2852 5.04141C42.2949 5.28664 42.2482 5.53082 42.1485 5.75511C42.0489 5.97939 41.8991 6.17779 41.7106 6.33498C41.3138 6.66105 40.8123 6.83212 40.2989 6.81646L37.9926 6.81777Z" fill="#BE1E2D"></path><path d="M46.4663 8.62565C47.3856 7.66356 48.2475 7.18252 49.0521 7.18252C49.576 7.1705 50.0849 7.3581 50.4756 7.7073C50.6664 7.87109 50.8187 8.07506 50.9214 8.30459C51.0241 8.53413 51.0749 8.78354 51.0699 9.03497C51.0699 9.59299 50.9094 9.99313 50.5884 10.2354C50.2674 10.4777 49.7724 10.7059 49.1033 10.9202C48.1666 11.2351 47.4874 11.5587 47.0659 11.8911C46.6662 12.2059 46.4659 12.7307 46.465 13.4654V18.721C46.4843 19.2771 46.3016 19.8214 45.9507 20.2534C45.6079 20.6618 45.1343 20.866 44.5299 20.866C44.2656 20.8765 44.0024 20.8257 43.7609 20.7176C43.5194 20.6095 43.3062 20.447 43.1379 20.2429C42.7883 19.8137 42.6049 19.273 42.621 18.7197V9.46267C42.621 8.76909 42.7763 8.25393 43.0868 7.9172C43.2544 7.71179 43.4658 7.54634 43.7054 7.43286C43.9451 7.31939 44.207 7.26076 44.4722 7.26123C45.3722 7.26386 46.0369 7.71867 46.4663 8.62565Z" fill="#BE1E2D"></path><path d="M60.668 19.3468C60.2792 19.8455 59.7937 20.2605 59.2406 20.5669C58.6823 20.8335 58.0682 20.9626 57.4498 20.9434C56.0574 20.9434 54.8015 20.4558 53.682 19.4806C52.1662 18.1311 51.4084 16.3175 51.4084 14.04C51.4084 11.9409 52.0788 10.2319 53.4196 8.91297C54.5898 7.74272 55.9074 7.1576 57.3724 7.1576C57.9895 7.13839 58.6029 7.25857 59.1671 7.50919C59.7413 7.80627 60.2597 8.20042 60.6995 8.67419C61.0913 7.73485 61.7105 7.26518 62.5572 7.26518C62.8153 7.26254 63.0713 7.31144 63.3103 7.40901C63.5493 7.50658 63.7664 7.65086 63.949 7.83339C64.1315 8.01592 64.2758 8.23304 64.3733 8.47203C64.4709 8.71102 64.5198 8.96708 64.5172 9.22521V18.5859C64.5329 19.1701 64.3419 19.741 63.978 20.1982C63.8065 20.4147 63.5866 20.5879 63.3359 20.7039C63.0853 20.8199 62.8109 20.8754 62.5349 20.866C61.648 20.866 61.0257 20.3596 60.668 19.3468ZM55.2537 13.9797C55.2346 14.8135 55.4549 15.6353 55.8886 16.3477C56.3119 17.0229 56.9452 17.3605 57.7883 17.3605C58.319 17.3712 58.8393 17.2122 59.2734 16.9066C59.6964 16.6049 60.0297 16.1941 60.2377 15.718C60.4568 15.2295 60.569 14.7 60.567 14.1646C60.567 13.1719 60.3391 12.3529 59.8835 11.7074C59.4278 11.0619 58.7281 10.7392 57.7844 10.7392C57.4137 10.7293 57.0469 10.8164 56.7204 10.992C56.3938 11.1676 56.1189 11.4255 55.9227 11.7402C55.4772 12.4013 55.2438 13.1825 55.2537 13.9797Z" fill="#BE1E2D"></path><path d="M71.3958 14.3785V18.721C71.4128 19.2748 71.2303 19.8163 70.8815 20.2468C70.5386 20.6596 70.065 20.866 69.4606 20.866C69.1963 20.8765 68.9331 20.8257 68.6916 20.7176C68.4502 20.6095 68.237 20.447 68.0687 20.2428C67.7191 19.8137 67.5356 19.273 67.5518 18.7197V3.62586C67.5488 3.26056 67.6249 2.89894 67.7748 2.56582C67.9131 2.24959 68.1412 1.98091 68.4308 1.79309C68.7376 1.60154 69.0938 1.50395 69.4554 1.51233C69.7216 1.5002 69.9871 1.54843 70.232 1.65339C70.4769 1.75835 70.6949 1.91733 70.8697 2.11844C71.2246 2.53897 71.4115 3.07586 71.3945 3.62586V11.7861L75.2135 7.86473C75.6097 7.44753 76.1931 7.23893 76.9636 7.23893C77.316 7.25094 77.6502 7.39852 77.8964 7.65088C78.1754 7.89511 78.3793 8.2136 78.4842 8.56924C78.5119 8.71474 78.529 8.86206 78.5353 9.01005C78.5354 9.29605 78.4718 9.57849 78.3493 9.83692C78.2268 10.0954 78.0483 10.3233 77.8269 10.5043L75.1072 13.0902L78.4855 17.2792C79.0103 17.9727 79.2727 18.494 79.2727 18.843C79.2835 19.3546 79.1192 19.8545 78.8069 20.2599C78.6679 20.4503 78.485 20.6043 78.2737 20.7089C78.0625 20.8135 77.8291 20.8656 77.5934 20.8608C76.7931 20.8608 76.1756 20.5629 75.7409 19.9673L71.3958 14.3785Z" fill="#BE1E2D"></path><path d="M86.7204 10.9202V18.717C86.7411 19.2739 86.5599 19.8195 86.2101 20.2533C86.0392 20.4553 85.8243 20.6153 85.5818 20.7211C85.3393 20.8268 85.0758 20.8755 84.8116 20.8634C84.5443 20.8744 84.278 20.8239 84.0333 20.7159C83.7886 20.6079 83.5719 20.4451 83.3999 20.2402C83.046 19.813 82.8595 19.2716 82.8752 18.717V10.9202C81.9131 10.9202 81.2681 10.7287 80.9401 10.3456C80.6424 10.0256 80.4818 9.60175 80.4927 9.16484C80.4982 8.85938 80.5817 8.5604 80.7354 8.29634C80.8727 8.02693 81.0918 7.80787 81.3612 7.67055C81.6717 7.51311 82.1763 7.4344 82.8752 7.4344V5.04275C82.8568 4.48711 83.0404 3.94364 83.3921 3.51303C83.7367 3.10195 84.2094 2.89642 84.8103 2.89642C85.0741 2.88499 85.337 2.93429 85.5788 3.04051C85.8206 3.14673 86.0348 3.30704 86.2048 3.50909C86.5557 3.941 86.7384 4.4853 86.7191 5.04143V7.44227H87.8172C88.3169 7.42557 88.8061 7.58847 89.196 7.90145C89.3803 8.05619 89.5263 8.25146 89.6226 8.472C89.7188 8.69254 89.7628 8.93237 89.751 9.17271C89.7611 9.41399 89.7161 9.65442 89.6192 9.87564C89.5224 10.0969 89.3763 10.293 89.1921 10.4492C88.8062 10.7691 88.3168 10.937 87.8159 10.9215L86.7204 10.9202Z" fill="#BE1E2D"></path><path d="M94.5946 15.3244C94.8631 16.0932 95.2462 16.6494 95.7439 16.9932C96.262 17.3902 96.8977 17.603 97.5504 17.598C98.3053 17.5959 99.0491 17.4161 99.7216 17.0732L100.82 16.5261C101.051 16.4199 101.3 16.3572 101.554 16.3411C101.835 16.3432 102.109 16.4177 102.352 16.5576C102.606 16.6964 102.819 16.8984 102.971 17.144C103.119 17.3724 103.199 17.6382 103.201 17.9102C103.201 18.6291 102.686 19.282 101.655 19.8689C100.399 20.5835 98.9607 20.9408 97.3392 20.9408C96.3006 20.9462 95.2725 20.733 94.3218 20.315C93.3809 19.9017 92.5507 19.2725 91.8986 18.4783C90.9366 17.3159 90.4555 15.8155 90.4555 13.977C90.4467 12.7839 90.7468 11.6088 91.3266 10.566C91.8898 9.53769 92.7161 8.67746 93.7209 8.0733C94.7301 7.46136 95.8901 7.1433 97.0702 7.15494C98.2001 7.14471 99.3111 7.44514 100.282 8.02344C101.242 8.5886 102.034 9.40088 102.574 10.3757C103.124 11.3503 103.41 12.4514 103.404 13.5703C103.404 14.1825 103.277 14.6269 103.024 14.9032C102.77 15.1796 102.348 15.3191 101.756 15.3217L94.5946 15.3244ZM99.6456 12.7005C99.2371 11.0956 98.3625 10.2931 97.0217 10.2931C95.8427 10.2931 94.9891 11.0956 94.4608 12.7005H99.6456Z" fill="#BE1E2D"></path><path d="M109.217 15.3244C109.486 16.0932 109.869 16.6494 110.367 16.9932C110.885 17.3902 111.52 17.6031 112.173 17.598C112.928 17.5959 113.672 17.4161 114.344 17.0732L115.443 16.5261C115.674 16.4199 115.923 16.3572 116.177 16.3411C116.46 16.3432 116.737 16.4192 116.981 16.5615C117.235 16.7004 117.448 16.9024 117.601 17.148C117.748 17.3764 117.828 17.6421 117.83 17.9141C117.83 18.6331 117.315 19.286 116.285 19.8729C115.029 20.5874 113.59 20.9447 111.969 20.9447C110.93 20.9501 109.902 20.7369 108.951 20.3189C108.01 19.9057 107.18 19.2764 106.528 18.4822C105.566 17.3198 105.085 15.8194 105.085 13.9809C105.076 12.7878 105.376 11.6127 105.956 10.5699C106.519 9.54163 107.345 8.6814 108.35 8.07723C109.359 7.46529 110.519 7.14724 111.7 7.15888C112.829 7.14864 113.94 7.44908 114.911 8.02738C115.872 8.59254 116.663 9.40482 117.203 10.3797C117.753 11.3542 118.039 12.4553 118.034 13.5742C118.034 14.1865 117.907 14.6308 117.653 14.9072C117.4 15.1836 116.977 15.3231 116.386 15.3257L109.217 15.3244ZM114.268 12.7005C113.86 11.0956 112.985 10.2931 111.644 10.2931C110.465 10.2931 109.612 11.0956 109.084 12.7005H114.268Z" fill="#BE1E2D"></path><path d="M124.235 8.62565C125.155 7.66356 126.016 7.18252 126.821 7.18252C127.345 7.1705 127.854 7.3581 128.245 7.7073C128.435 7.87109 128.588 8.07506 128.69 8.30459C128.793 8.53413 128.844 8.78354 128.839 9.03497C128.839 9.59299 128.678 9.99313 128.357 10.2354C128.036 10.4777 127.542 10.7059 126.874 10.9202C125.937 11.2351 125.258 11.5587 124.836 11.8911C124.436 12.2059 124.236 12.7307 124.235 13.4654V18.721C124.255 19.2771 124.072 19.8214 123.721 20.2534C123.378 20.6618 122.905 20.866 122.3 20.866C122.036 20.8765 121.773 20.8257 121.531 20.7176C121.29 20.6095 121.076 20.447 120.908 20.2429C120.559 19.8137 120.375 19.273 120.391 18.7197V9.46267C120.391 8.76909 120.546 8.25393 120.857 7.9172C121.025 7.71179 121.236 7.54634 121.476 7.43286C121.715 7.31939 121.977 7.26076 122.242 7.26123C123.142 7.26386 123.806 7.71867 124.235 8.62565Z" fill="#BE1E2D"></path></svg>

<svg xmlns="http://www.w3.org/2000/svg" width="129" height="24" fill="none" viewBox="0 0 129 24"><path fill="#fff" d="M22.783 1.523H3.071v19.712h19.712z"></path><path fill="var(--color-primary)" d="M19.45 0H4.55A4.55 4.55 0 0 0 0 4.55v14.9A4.55 4.55 0 0 0 4.55 24h14.9A4.55 4.55 0 0 0 24 19.45V4.55A4.55 4.55 0 0 0 19.45 0m-4.67 6.904c0 .292-.083.579-.239.826h-2.632a1.554 1.554 0 0 1 2.252-2.07 1.55 1.55 0 0 1 .62 1.244m-3.658-3.267a1.8 1.8 0 0 1 1.75 1.392 1.77 1.77 0 0 0-1.557 2.195 1.799 1.799 0 1 1-.194-3.586zM9.035 8.123h6.032a.659.659 0 0 1 0 1.317H9.035a.659.659 0 1 1 0-1.317m7.616 9.839a1.675 1.675 0 0 1-1.675 1.675h-5.8a1.676 1.676 0 0 1-1.675-1.675V12.42a1.68 1.68 0 0 1 1.21-1.606v-.584h6.586v.55a1.675 1.675 0 0 1 1.354 1.64z"></path><path fill="var(--color-primary)" d="M12.06 13.57c-1.588-1.588-3.647.472-2.06 2.059l2.06 2.055 2.052-2.052c1.572-1.572-.487-3.631-2.052-2.063M37.993 6.818V18.72c.02.576-.17 1.14-.533 1.586q-.532.635-1.479.635a1.84 1.84 0 0 1-1.472-.641c-.367-.441-.56-1.001-.545-1.575V6.818h-2.375a2.15 2.15 0 0 1-1.418-.476 1.6 1.6 0 0 1-.575-1.3 1.64 1.64 0 0 1 .572-1.322c.399-.33.904-.502 1.421-.485h8.71a2.12 2.12 0 0 1 1.42.479q.567.479.566 1.327a1.6 1.6 0 0 1-.574 1.294 2.12 2.12 0 0 1-1.412.481zM46.466 8.626q1.38-1.443 2.586-1.443a2.07 2.07 0 0 1 1.424.524 1.7 1.7 0 0 1 .594 1.328q0 .837-.482 1.2-.48.364-1.485.685-1.405.473-2.037.971-.6.473-.601 1.574v5.256c.02.556-.163 1.1-.514 1.532q-.515.613-1.421.613a1.72 1.72 0 0 1-1.392-.623c-.35-.43-.533-.97-.517-1.523V9.463q0-1.041.466-1.546a1.78 1.78 0 0 1 1.385-.656q1.35.005 1.994 1.365M60.668 19.347a4.7 4.7 0 0 1-1.427 1.22 3.9 3.9 0 0 1-1.791.376q-2.09 0-3.768-1.462-2.274-2.025-2.274-5.441 0-3.15 2.012-5.127 1.755-1.755 3.952-1.755c.617-.02 1.23.1 1.795.351A5.6 5.6 0 0 1 60.7 8.674q.589-1.41 1.858-1.409a1.94 1.94 0 0 1 1.96 1.96v9.36a2.48 2.48 0 0 1-.539 1.613 1.76 1.76 0 0 1-1.443.668q-1.331 0-1.867-1.52m-5.414-5.367c-.02.833.2 1.655.635 2.368q.634 1.012 1.9 1.012c.53.011 1.05-.148 1.484-.453.423-.302.757-.713.965-1.189.219-.489.331-1.018.329-1.553q0-1.49-.684-2.458-.683-.968-2.099-.968a2.13 2.13 0 0 0-1.861 1.001 3.9 3.9 0 0 0-.67 2.24M71.396 14.379v4.342a2.3 2.3 0 0 1-.514 1.526q-.515.62-1.421.619a1.72 1.72 0 0 1-1.392-.623c-.35-.43-.533-.97-.517-1.523V3.626a2.5 2.5 0 0 1 .223-1.06c.138-.316.366-.585.656-.773.307-.191.663-.29 1.024-.28a1.77 1.77 0 0 1 1.415.605c.355.421.541.958.524 1.508v8.16l3.82-3.921q.595-.626 1.75-.626c.352.012.686.16.932.412.28.244.483.563.588.918q.042.219.051.441a1.93 1.93 0 0 1-.708 1.494l-2.72 2.586 3.379 4.19q.787 1.04.787 1.563a2.24 2.24 0 0 1-.466 1.417 1.47 1.47 0 0 1-1.214.6q-1.2 0-1.852-.893zM86.72 10.92v7.797a2.3 2.3 0 0 1-.51 1.536 1.73 1.73 0 0 1-1.398.61 1.75 1.75 0 0 1-1.412-.623 2.3 2.3 0 0 1-.525-1.523V10.92q-1.443 0-1.935-.574a1.67 1.67 0 0 1-.447-1.181 1.8 1.8 0 0 1 .242-.869c.138-.27.357-.488.626-.625q.465-.237 1.514-.237V5.043c-.018-.556.165-1.1.517-1.53q.517-.617 1.418-.617a1.73 1.73 0 0 1 1.395.613c.35.432.533.976.514 1.532v2.401h1.098c.5-.016.99.146 1.379.46a1.56 1.56 0 0 1 .555 1.27 1.59 1.59 0 0 1-.559 1.277c-.386.32-.875.488-1.376.473zM94.595 15.324q.402 1.154 1.149 1.67c.518.396 1.154.609 1.806.604a4.8 4.8 0 0 0 2.172-.525l1.098-.547c.231-.106.48-.169.734-.185.281.002.555.077.798.217.254.138.467.34.619.586.148.228.228.494.23.766q0 1.08-1.546 1.959-1.883 1.072-4.316 1.072a7.4 7.4 0 0 1-3.017-.626 6.54 6.54 0 0 1-2.423-1.837q-1.444-1.744-1.444-4.501a6.9 6.9 0 0 1 .872-3.411 6.6 6.6 0 0 1 2.394-2.493 6.34 6.34 0 0 1 3.35-.918c1.13-.01 2.24.29 3.211.868a6.24 6.24 0 0 1 2.292 2.353 6.43 6.43 0 0 1 .83 3.194q0 .919-.38 1.333-.38.415-1.268.419zm5.05-2.623q-.612-2.408-2.623-2.408-1.77 0-2.561 2.408zM109.217 15.324q.403 1.154 1.15 1.67a2.93 2.93 0 0 0 1.806.604 4.8 4.8 0 0 0 2.171-.525l1.099-.547c.231-.106.48-.169.734-.185.283.002.56.078.804.22.254.14.467.341.62.587.147.228.227.494.229.766q0 1.08-1.545 1.959-1.884 1.071-4.316 1.072a7.4 7.4 0 0 1-3.018-.626 6.5 6.5 0 0 1-2.423-1.837q-1.443-1.743-1.443-4.501a6.9 6.9 0 0 1 .871-3.411 6.6 6.6 0 0 1 2.394-2.493 6.34 6.34 0 0 1 3.35-.918c1.129-.01 2.24.29 3.211.868a6.23 6.23 0 0 1 2.292 2.353 6.44 6.44 0 0 1 .831 3.194q0 .92-.381 1.333-.38.415-1.267.419zm5.051-2.623q-.612-2.408-2.624-2.408-1.768 0-2.56 2.408zM124.235 8.626q1.38-1.443 2.586-1.443a2.07 2.07 0 0 1 1.424.524 1.7 1.7 0 0 1 .594 1.328q0 .837-.482 1.2-.481.364-1.483.685-1.405.473-2.038.971-.6.473-.601 1.574v5.256a2.3 2.3 0 0 1-.514 1.532q-.514.613-1.421.613a1.72 1.72 0 0 1-1.392-.623 2.3 2.3 0 0 1-.517-1.523V9.463q0-1.041.466-1.546a1.79 1.79 0 0 1 1.385-.656q1.35.005 1.993 1.365"></path></svg>
